apps/tokenlist/data/4217/icons/0x20c0000000000000000000009a4a4b17e0dc6651.svg

<svg xmlns="http://www.w3.org/2000/svg" width="720" height="714" fill="none" viewBox="0 0 720 714"><circle cx="357" cy="357" r="357" fill="#000"/><path fill="#fff" d="M405.18 357.091H457C452.59 408.451 417.308 440 363.65 440c-55.863 0-90.778-33.751-99.598-95.015H242l4.778-25.68h14.701V304.63H242l4.778-25.679h16.539c8.82-63.1 44.102-97.951 101.435-97.951 54.394 0 87.838 31.183 91.146 81.809H405.18c-3.675-23.479-17.641-38.153-40.428-38.153-26.094 0-43 18.71-48.88 54.295h80.487l-4.777 25.679h-77.915v14.675h74.974l-4.777 25.68h-67.257c5.881 33.75 22.051 51.359 47.043 51.359 22.786 0 37.855-15.041 41.53-39.253"/><path fill="url(#a)" d="M357 96.15c143.852 0 260.465 116.148 260.465 259.425h96.768C714.233 159.197 554.165 0 357 0S0 159.197 0 355.575h96.536C96.536 212.298 213.148 96.151 357 96.151"/><path fill="url(#b)" d="M357.001 514.313c-88.02 0-159.375-71.07-159.375-158.739H96.536c0 143.278 116.613 259.425 260.465 259.425s260.465-116.147 260.464-259.425H516.376c0 87.669-71.354 158.739-159.375 158.739"/><defs><linearGradient id="a" x1="714.233" x2="51.769" y1="355.575" y2="-78.929" gradientUnits="userSpaceOnUse"><stop stop-color="#30c0fe"/><stop offset="1" stop-color="#00ffea"/></linearGradient><linearGradient id="b" x1="617.466" x2="134.2" y1="614.999" y2="298.132" gradientUnits="userSpaceOnUse"><stop stop-color="#30c0fe"/><stop offset="1" stop-color="#00ffea"/></linearGradient></defs></svg>

<svg width="720" height="714" viewBox="0 0 720 714" fill="none" xmlns="http://www.w3.org/2000/svg">
<circle cx="357" cy="357" r="357" fill="black"/>
<path d="M405.18 357.091H457C452.59 408.451 417.308 440 363.65 440C307.787 440 272.872 406.249 264.052 344.985H242L246.778 319.305H261.479V310.5C261.479 308.666 261.479 306.465 261.479 304.63H242L246.778 278.951H263.317C272.137 215.851 307.419 181 364.752 181C419.146 181 452.59 212.183 455.898 262.809H405.18C401.505 239.33 387.539 224.656 364.752 224.656C338.658 224.656 321.752 243.366 315.872 278.951H396.359L391.582 304.63H313.667V310.5C313.667 313.435 313.667 316.37 313.667 319.305H388.641L383.864 344.985H316.607C322.488 378.735 338.658 396.344 363.65 396.344C386.436 396.344 401.505 381.303 405.18 357.091Z" fill="white"/>
<path d="M357 96.1506C500.852 96.1505 617.465 212.298 617.465 355.575L714.233 355.575C714.233 159.197 554.165 8.1239e-05 357 0.000106125C159.835 0.000131012 -1.18908e-05 159.197 0 355.575L96.5357 355.575C96.5357 212.298 213.148 96.1506 357 96.1506Z" fill="url(#paint0_linear_121_158)"/>
<path d="M357.001 514.313C268.981 514.313 197.626 443.243 197.626 355.574L96.5368 355.574C96.5368 498.852 213.149 614.999 357.001 614.999C500.853 614.999 617.466 498.852 617.465 355.574L516.376 355.574C516.376 443.243 445.022 514.313 357.001 514.313Z" fill="url(#paint1_linear_121_158)"/>
<defs>
<linearGradient id="paint0_linear_121_158" x1="714.233" y1="355.575" x2="51.7693" y2="-78.9294" gradientUnits="userSpaceOnUse">
<stop stop-color="#30C0FE"/>
<stop offset="1" stop-color="#00FFEA"/>
</linearGradient>
<linearGradient id="paint1_linear_121_158" x1="617.466" y1="614.999" x2="134.2" y2="298.132" gradientUnits="userSpaceOnUse">
<stop stop-color="#30C0FE"/>
<stop offset="1" stop-color="#00FFEA"/>
</linearGradient>
</defs>
</svg>
